16x16/apps/vmware-view.svg

<svg height="16" width="16" xmlns="http://www.w3.org/2000/svg"><circle cx="8.5" cy="8.5" fill="#489f38" r="7.5"/><g fill="#f4f4f7"><path d="m5 4c-.554 0-1 .446-1 1v5c0 .554.446 1 1 1h7c.554 0 1-.446 1-1v-5c0-.554-.446-1-1-1zm0 1h7v5h-7zm3 6h1v2h-1z"/><rect height="5" rx=".5" ry=".417" transform="rotate(90)" width="1" x="12" y="-11"/><path d="m8 6h1v1h-1zm-1 1h1v1h-1zm2 0h1v1h-1zm-1 1h1v1h-1zm2 0h1v1h-1zm-4 0h1v1h-1z"/></g></svg>

<svg height="16" width="16" xmlns="http://www.w3.org/2000/svg">
    <circle cx="8.5" cy="8.5" fill="#489f38" r="7.5"/>
    <g fill="#f4f4f7">
        <path d="M5 4c-.554 0-1 .446-1 1v5c0 .554.446 1 1 1h7c.554 0 1-.446 1-1V5c0-.554-.446-1-1-1zm0 1h7v5H5zm3 6h1v2H8z"/>
        <rect height="5" rx=".5" ry=".417" transform="rotate(90)" width="1" x="12" y="-11"/>
        <path d="M8 6h1v1H8zM7 7h1v1H7zm2 0h1v1H9zM8 8h1v1H8zm2 0h1v1h-1zM6 8h1v1H6z"/>
    </g>
</svg>
